X:0
T:Gloomy Winter's Now Awa
G:strathspey
S:Alexander Robertson, Caledonian Museum book 3 p57
M:4/4
L:1/8
Q:1/4=120
K:EMin
% near-hexatonic, sharpened seventh on rising phrases
e>ee>f  e>dB2|g>gg>b a>gf2|e>eb>e       e>dBG|A<AB^d       eEE2:|
G>GGB   A>GF2|G>FEG  FB B2|g>gg>b       a>gfa|g>e g/f/e/d/ Bee2:|
g>gd'>g f>ga2|g>feg  fb b2|B>d d/c/B/A/ Bef>a|g>e g/f/e/d/ Bee2:|

And the sixth gap got filled in with a later version of "An caora crom",
using the art-music minor scale where the sixth is sharpened, though it
is still not an important note in the tune:

